src/Icon/svgs/TextH2.svg

<svg width="24" height="24" viewBox="0 0 24 24" fill="none" xmlns="http://www.w3.org/2000/svg">
<path d="M2.5 2H4.5V11H13.5V2H15.5V22H13.5V13H4.5V22H2.5V2Z" fill="#1B1C1D"/>
<path fill-rule="evenodd" clip-rule="evenodd" d="M20.2514 13.7499C19.4259 13.7499 18.7559 14.4175 18.7528 15.243L18.75 16.0028L17.25 15.9972L17.2528 15.2374C17.259 13.5857 18.5997 12.2499 20.2514 12.2499C21.9077 12.2499 23.25 13.5933 23.25 15.2491V15.4999C23.25 16.768 22.6243 17.9364 21.5303 19.0303C20.9751 19.5856 20.4333 20.0898 19.9768 20.5001H23.5V22.0001H17.5V20.6431L17.777 20.418L17.7798 20.4157L17.7901 20.4073L17.8325 20.3724C17.8701 20.3414 17.9261 20.2949 17.9978 20.2346C18.1415 20.1138 18.3484 19.9376 18.5991 19.7175C19.1013 19.2768 19.7762 18.6632 20.4697 17.9697C21.3981 17.0413 21.75 16.2319 21.75 15.4999V15.2491C21.75 14.4212 21.0788 13.7499 20.2514 13.7499Z" fill="#1B1C1D"/>
</svg>

<svg xmlns="http://www.w3.org/2000/svg" width="24" height="24" fill="#1B1C1D"><path d="M2.5 2h2v9h9V2h2v20h-2v-9h-9v9h-2V2z"/><path fill-rule="evenodd" d="M20.251 13.75a1.5 1.5 0 0 0-1.499 1.493l-.003.76-1.5-.006.003-.76a3 3 0 0 1 2.999-2.987 3 3 0 0 1 2.999 2.999v.251c0 1.268-.626 2.436-1.72 3.53l-1.553 1.47H23.5V22h-6v-1.357l.277-.225.003-.002.01-.008.042-.035.165-.138.601-.517 1.871-1.748c.928-.928 1.28-1.738 1.28-2.47v-.251a1.5 1.5 0 0 0-1.499-1.499z"/></svg>
